communes/5720.svg

<?xml version="1.0" encoding="UTF-8"?>
<svg version="1.0" viewBox="0 0 603 763" xmlns="http://www.w3.org/2000/svg" xmlns:cc="http://creativecommons.org/ns#" xmlns:dc="http://purl.org/dc/elements/1.1/" xmlns:rdf="http://www.w3.org/1999/02/22-rdf-syntax-ns#" xmlns:xlink="http://www.w3.org/1999/xlink">
<metadata>
<rdf:RDF>
<cc:Work rdf:about="">
<dc:format>image/svg+xml</dc:format>
<dc:type rdf:resource="http://purl.org/dc/dcmitype/StillImage"/>
<dc:date>07-AUG-2006</dc:date>
<dc:creator>
<cc:Agent>
<dc:title>Jérôme BLUM (wagner51)</dc:title>
</cc:Agent>
</dc:creator>
<cc:license rdf:resource="http://creativecommons.org/licenses/GPL/2.0/"/>
<dc:coverage/>
<dc:description>Gabarit pour le Projet:Blasons de WIkipédia</dc:description>
<dc:subject>
<rdf:Bag>
<rdf:li>blason suisse modèle gabarit projet blasons</rdf:li>
</rdf:Bag>
</dc:subject>
<dc:language>fr</dc:language>
<dc:title>Gabrit d'un blason suisse</dc:title>
</cc:Work>
<cc:License rdf:about="http://creativecommons.org/licenses/GPL/2.0/">
<cc:permits rdf:resource="http://web.resource.org/cc/Reproduction"/>
<cc:permits rdf:resource="http://web.resource.org/cc/Distribution"/>
<cc:requires rdf:resource="http://web.resource.org/cc/Notice"/>
<cc:permits rdf:resource="http://web.resource.org/cc/DerivativeWorks"/>
<cc:requires rdf:resource="http://web.resource.org/cc/ShareAlike"/>
<cc:requires rdf:resource="http://web.resource.org/cc/SourceCode"/>
</cc:License>
</rdf:RDF>
</metadata>
<defs>
<radialGradient id="a" cx="858.04" cy="579.93" r="300" gradientTransform="matrix(1.215 1.5316e-24 1.4647e-23 1.2667 -839.19 -490.49)" gradientUnits="userSpaceOnUse">
<stop stop-color="#fff" stop-opacity=".31373" offset="0"/>
<stop stop-color="#fff" stop-opacity=".25098" offset=".19"/>
<stop stop-color="#6b6b6b" stop-opacity=".12549" offset=".6"/>
<stop stop-opacity=".12549" offset="1"/>
</radialGradient>
</defs>
<desc>Coat of Arms of Canton of Freiburg (Fribourg)</desc>
<g>
<path d="m1.5 1.5v458.87c0 166.31 134.31 301.13 300 301.13s300-134.82 300-301.13v-458.87h-600z" fill="#fff"/>
</g>
<g>
<path d="m426.84 611.88c-29.527 0-57.122 25.91-84.91 45.623-27.787 19.713-40.427 5.678-40.427 5.678s-12.638 14.035-40.426-5.678-55.383-45.623-84.909-45.623c-24.079 0-51.581 19.01-51.581 57.029 0 9.105 1.718 23.131 6.34 39.182 48.434 33.666 107.2 53.408 170.58 53.408s122.14-19.742 170.58-53.406c4.622-16.053 6.34-30.076 6.34-39.184 0-38.019-27.502-57.029-51.579-57.029z" fill="#5ab532"/>
<path d="m472.07 708.09c4.622-16.053 6.34-30.076 6.34-39.184 0-38.021-27.502-57.029-51.579-57.029-29.527 0-57.122 25.91-84.91 45.623-27.787 19.713-40.427 5.678-40.427 5.678s-12.638 14.035-40.426-5.678-55.383-45.623-84.909-45.623c-24.079 0-51.581 19.01-51.581 57.029 0 9.105 1.718 23.131 6.34 39.182" fill="none" stroke="#000" stroke-width="3"/>
<rect x="273.92" y="485" width="55.166" height="121.4" fill="#5ab532" stroke="#000" stroke-miterlimit="13" stroke-width="3"/>
<path d="m369.93 633.42c0-37.795-30.64-68.436-68.436-68.436-37.794 0-68.435 30.641-68.435 68.436s53.733 127.95 68.435 127.95c14.701 0 68.436-90.154 68.436-127.95z" fill="#5ab532" stroke="#000" stroke-width="3"/>
<path d="m415.26 386.74c12.766-5.834 14.24-21.155 14.24-21.155 41 15.221 50-43.217 50-43.217-64.5 13.046-91.642-23.145-91.642-23.145 2.91-4.263 4.107-9.89 2.142-17.083 33.75 9.242 41.5-32.073 41.5-32.073-29.5 13.59-59.563-14.949-59.563-42.327 23.233-3.418 30.063-31.604 30.063-31.604-40.75 10.6-60.428-30.684-60.428-30.684 20.808 1.907 28.428-20.687 28.428-20.687-44.25-3.805-47.75-46.207-68.5-71.756-20.75 25.549-24.25 67.951-68.5 71.756 0 0 7.62 22.594 28.427 20.687 0 0-19.677 41.284-60.427 30.684 0 0 6.83 28.186 30.063 31.604 0 27.377-30.063 55.917-59.563 42.327 0 0 7.75 41.314 41.5 32.073-1.966 7.192-0.769 12.819 2.141 17.083 0 0-27.141 36.191-91.641 23.145 0 0 9 58.438 50 43.217 0 0 1.475 15.321 14.24 21.155-5.24 15.81-37.99 48.699-98.49 30.759 0 0 3.75 51.643 46.5 40.499 0 0 15.75 36.422 49.5 4.893 0 0 9.829 9.576 23.748 5.514-10.292 16.079-26.633 37.426-75.748 38.79 13.167 23.828 39.833 42.674 58.167 19.117 0 0 13.701 17.862 30.667 11.234 10.667-4.167 15.5-19.026 15.5-19.026s26.667 15.766 46.667-21.925c0 0 4 20.656 17.25 31.528 13.25-10.872 17.25-31.528 17.25-31.528 20 37.69 46.666 21.925 46.666 21.925s4.834 14.859 15.5 19.026c16.966 6.628 30.667-11.234 30.667-11.234 18.334 23.557 45 4.711 58.167-19.117-49.114-1.364-65.456-22.711-75.748-38.79 13.919 4.063 23.748-5.514 23.748-5.514 33.75 31.529 49.5-4.893 49.5-4.893 42.75 11.144 46.5-40.499 46.5-40.499-60.501 17.94-93.251-14.949-98.491-30.759z" fill="#5ab532" stroke="#000" stroke-miterlimit="13" stroke-width="3"/>
<path d="m261.42 145.45c7.144-0.654 15.843-4.196 26.323-12.533" fill="none" stroke="#000" stroke-linecap="round" stroke-miterlimit="10" stroke-width="3"/>
<path d="m231.06 207.74c7.882 1.16 17.653-0.531 29.687-7.142 0 0 14.25 15.493 20 5.98" fill="none" stroke="#000" stroke-linecap="round" stroke-miterlimit="10" stroke-width="3"/>
<path d="m215.14 299.22c5.229 7.66 15.989 10.913 23.859 10.913 12.5 0 22-10.328 22-10.328s12.125 21.336 18 14.949" fill="none" stroke="#000" stroke-linecap="round" stroke-miterlimit="10" stroke-width="3"/>
<path d="m187.74 386.74c3.003 1.373 6.63 2.22 11.01 2.22 18 0 25.25-11.688 25.25-11.688s24 10.329 36.75-21.744" fill="none" stroke="#000" stroke-linecap="round" stroke-miterlimit="10" stroke-width="3"/>
<path d="m259.5 440.33s-4 16.308-14 19.841c-10 3.534-21.25 0.272-25.5-6.795-3.821 3.153-6.94 8.68-11.002 15.027" fill="none" stroke="#000" stroke-linecap="round" stroke-miterlimit="10" stroke-width="3"/>
<path d="m341.57 145.45c-7.144-0.654-15.843-4.196-26.322-12.533" fill="none" stroke="#000" stroke-linecap="round" stroke-miterlimit="10" stroke-width="3"/>
<path d="m371.94 207.74c-7.883 1.16-17.653-0.531-29.687-7.142 0 0-14.25 15.493-20 5.98" fill="none" stroke="#000" stroke-linecap="round" stroke-miterlimit="10" stroke-width="3"/>
<path d="m387.86 299.22c-5.229 7.66-15.988 10.913-23.858 10.913-12.5 0-22-10.328-22-10.328s-12.125 21.336-18 14.949" fill="none" stroke="#000" stroke-linecap="round" stroke-miterlimit="10" stroke-width="3"/>
<path d="m415.26 386.74c-3.003 1.373-6.63 2.22-11.01 2.22-18 0-25.25-11.688-25.25-11.688s-24 10.329-36.75-21.744" fill="none" stroke="#000" stroke-linecap="round" stroke-miterlimit="10" stroke-width="3"/>
<path d="m343.5 440.33s4 16.308 14 19.841c10 3.534 21.25 0.272 25.5-6.795 3.82 3.153 6.94 8.68 11.002 15.027" fill="none" stroke="#000" stroke-linecap="round" stroke-miterlimit="10" stroke-width="3"/>
<path d="m283.75 364.22c-1.5 21.201-8.75 46.207-28.25 61.972 0 0 15.25 15.492 33 1.902 0 0 4.75 17.396 19.5 23.919 0 0 15-9.241 19.25-27.724 0 0 12.75 22.016 34.75 4.349 0 0-24.75-21.201-32.25-61.7" fill="none" stroke="#000" stroke-linecap="round" stroke-miterlimit="10" stroke-width="3"/>
</g>
<g>
<path d="m1.5 1.5v458.87c0 166.31 134.31 301.13 300 301.13 165.69 0 300-134.82 300-301.13v-458.87h-600z" fill="url(#a)"/>
<path d="m1.5 1.5v458.87c0 166.31 134.31 301.13 300 301.13 165.69 0 300-134.82 300-301.13v-458.87h-600z" fill="none" stroke="#000" stroke-width="3"/>
</g>
</svg>

<?xml version="1.0" encoding="UTF-8" standalone="no"?>
<svg
   xmlns:dc="http://purl.org/dc/elements/1.1/"
   xmlns:cc="http://creativecommons.org/ns#"
   xmlns:rdf="http://www.w3.org/1999/02/22-rdf-syntax-ns#"
   xmlns:svg="http://www.w3.org/2000/svg"
   xmlns="http://www.w3.org/2000/svg"
   xmlns:xlink="http://www.w3.org/1999/xlink"
   xmlns:sodipodi="http://sodipodi.sourceforge.net/DTD/sodipodi-0.dtd"
   xmlns:inkscape="http://www.inkscape.org/namespaces/inkscape"
   height="763"
   width="603"
   version="1.0"
   id="svg20"
   sodipodi:version="0.32"
   inkscape:version="0.46"
   sodipodi:docname="Givrins-coat_of_arms.svg"
   sodipodi:docbase="C:\Documents and Settings\Steve\Bureau\Blason Villages Suisse pour Wikipédia (par Delta-9)"
   inkscape:output_extension="org.inkscape.output.svg.inkscape">
  <metadata
     id="metadata31">
    <rdf:RDF>
      <cc:Work
         rdf:about="">
        <dc:format>image/svg+xml</dc:format>
        <dc:type
           rdf:resource="http://purl.org/dc/dcmitype/StillImage" />
        <dc:date>07-AUG-2006</dc:date>
        <dc:creator>
          <cc:Agent>
            <dc:title>Jérôme BLUM (wagner51)</dc:title>
          </cc:Agent>
        </dc:creator>
        <cc:license
           rdf:resource="http://creativecommons.org/licenses/GPL/2.0/" />
        <dc:coverage />
        <dc:description>Gabarit pour le Projet:Blasons de WIkipédia</dc:description>
        <dc:subject>
          <rdf:Bag>
            <rdf:li>blason suisse modèle gabarit projet blasons</rdf:li>
          </rdf:Bag>
        </dc:subject>
        <dc:language>fr</dc:language>
        <dc:title>Gabrit d'un blason suisse</dc:title>
      </cc:Work>
      <cc:License
         rdf:about="http://creativecommons.org/licenses/GPL/2.0/">
        <cc:permits
           rdf:resource="http://web.resource.org/cc/Reproduction" />
        <cc:permits
           rdf:resource="http://web.resource.org/cc/Distribution" />
        <cc:requires
           rdf:resource="http://web.resource.org/cc/Notice" />
        <cc:permits
           rdf:resource="http://web.resource.org/cc/DerivativeWorks" />
        <cc:requires
           rdf:resource="http://web.resource.org/cc/ShareAlike" />
        <cc:requires
           rdf:resource="http://web.resource.org/cc/SourceCode" />
      </cc:License>
    </rdf:RDF>
  </metadata>
  <defs
     id="defs29"><inkscape:perspective
   sodipodi:type="inkscape:persp3d"
   inkscape:vp_x="0 : 381.5 : 1"
   inkscape:vp_y="0 : 1000 : 0"
   inkscape:vp_z="603 : 381.5 : 1"
   inkscape:persp3d-origin="301.5 : 254.33333 : 1"
   id="perspective28" />
<linearGradient
   id="linearGradient2893">
  <stop
     style="stop-color:#ffffff;stop-opacity:0.3137255;"
     offset="0"
     id="stop2895" />
  <stop
     id="stop2897"
     offset="0.19"
     style="stop-color:#ffffff;stop-opacity:0.25098041;" />
  <stop
     style="stop-color:#6b6b6b;stop-opacity:0.1254902;"
     offset="0.60000002"
     id="stop2901" />
  <stop
     style="stop-color:#000000;stop-opacity:0.1254902;"
     offset="1"
     id="stop2899" />
</linearGradient>
<linearGradient
   id="linearGradient2955">
  <stop
     style="stop-color:white;stop-opacity:0;"
     offset="0"
     id="stop2965" />
  <stop
     style="stop-color:black;stop-opacity:0.64583331;"
     offset="1"
     id="stop2959" />
</linearGradient>
<radialGradient
   inkscape:collect="always"
   xlink:href="#linearGradient2893"
   id="radialGradient3236"
   gradientUnits="userSpaceOnUse"
   gradientTransform="matrix(1.215027,1.531577e-24,1.464684e-23,1.266667,-839.1924,-490.4894)"
   cx="858.04236"
   cy="579.93323"
   fx="858.04236"
   fy="579.93323"
   r="300" />
<inkscape:perspective
   id="perspective2618"
   inkscape:persp3d-origin="297.63751 : 280.63 : 1"
   inkscape:vp_z="595.27502 : 420.94501 : 1"
   inkscape:vp_y="0 : 1000 : 0"
   inkscape:vp_x="0 : 420.94501 : 1"
   sodipodi:type="inkscape:persp3d" />

	

	

		
		
		
			
		
		
		
	
			
			
			
			
			
			
			
			
			
			
			
		</defs>
  <sodipodi:namedview
     inkscape:window-height="875"
     inkscape:window-width="1166"
     inkscape:pageshadow="2"
     inkscape:pageopacity="0.0"
     guidetolerance="10.0"
     gridtolerance="10.0"
     objecttolerance="10.0"
     borderopacity="1.0"
     bordercolor="#666666"
     pagecolor="#ffffff"
     id="base"
     inkscape:zoom="0.68455018"
     inkscape:cx="283.69418"
     inkscape:cy="404.2642"
     inkscape:window-x="53"
     inkscape:window-y="42"
     inkscape:current-layer="layer2"
     showgrid="false"
     showguides="true"
     inkscape:guide-bbox="true">
    <sodipodi:guide
       orientation="horizontal"
       position="761.5"
       id="guide1885" />
    <sodipodi:guide
       orientation="vertical"
       position="1.5"
       id="guide1887" />
    <sodipodi:guide
       orientation="horizontal"
       position="1.5"
       id="guide1889" />
    <sodipodi:guide
       orientation="vertical"
       position="601.5"
       id="guide1891" />
    <sodipodi:guide
       orientation="vertical"
       position="301.50081"
       id="guide1893" />
  </sodipodi:namedview>
  <desc
     id="desc22">Coat of Arms of Canton of Freiburg (Fribourg)</desc>
  <g
     inkscape:groupmode="layer"
     id="layer1"
     inkscape:label="Fond écu"
     style="opacity:1"
     sodipodi:insensitive="true">
    <path
       d="M 1.5000048,1.5 L 1.5000048,460.369 C 1.5000048,626.68 135.814,761.5 301.5,761.5 C 467.186,761.5 601.5,626.68 601.5,460.369 L 601.5,1.5 L 1.5000048,1.5 z"
       id="path2625"
       style="opacity:1;fill:#ffffff;display:inline" />
  </g>
  <g
     inkscape:groupmode="layer"
     id="layer2"
     inkscape:label="Meubles"
     style="opacity:1;display:inline"
     sodipodi:insensitive="true">
    <path
       style="fill:#5ab532"
       id="path2598"
       d="M 426.835,611.88 C 397.308,611.88 369.713,637.79 341.925,657.503 C 314.138,677.216 301.498,663.181 301.498,663.181 C 301.498,663.181 288.86,677.216 261.072,657.503 C 233.284,637.79 205.689,611.88 176.163,611.88 C 152.084,611.88 124.582,630.89 124.582,668.909 C 124.582,678.014 126.3,692.04 130.922,708.091 C 179.356,741.757 238.126,761.499 301.498,761.499 C 364.87,761.499 423.642,741.757 472.074,708.093 C 476.696,692.04 478.414,678.017 478.414,668.909 C 478.414,630.89 450.912,611.88 426.835,611.88 z" />
    <path
       style="fill:none;stroke:#000000;stroke-width:3"
       id="path2600"
       d="M 472.074,708.093 C 476.696,692.04 478.414,678.017 478.414,668.909 C 478.414,630.888 450.912,611.88 426.835,611.88 C 397.308,611.88 369.713,637.79 341.925,657.503 C 314.138,677.216 301.498,663.181 301.498,663.181 C 301.498,663.181 288.86,677.216 261.072,657.503 C 233.284,637.79 205.689,611.88 176.163,611.88 C 152.084,611.88 124.582,630.89 124.582,668.909 C 124.582,678.014 126.3,692.04 130.922,708.091" />
    <rect
       style="fill:#5ab532;stroke:#000000;stroke-width:3;stroke-miterlimit:13"
       x="273.91501"
       y="484.996"
       stroke-miterlimit="13"
       width="55.166"
       height="121.404"
       id="rect2584" />
    <path
       style="fill:#5ab532;stroke:#000000;stroke-width:3"
       id="path2602"
       d="M 369.934,633.425 C 369.934,595.63 339.294,564.989 301.498,564.989 C 263.704,564.989 233.063,595.63 233.063,633.425 C 233.063,671.22 286.796,761.374 301.498,761.374 C 316.199,761.374 369.934,671.22 369.934,633.425 z" />
    <path
       style="fill:#5ab532;stroke:#000000;stroke-width:3;stroke-miterlimit:13"
       stroke-miterlimit="13"
       d="M 415.258,386.737 C 428.024,380.903 429.498,365.582 429.498,365.582 C 470.498,380.803 479.498,322.365 479.498,322.365 C 414.998,335.411 387.856,299.22 387.856,299.22 C 390.766,294.957 391.963,289.33 389.998,282.137 C 423.748,291.379 431.498,250.064 431.498,250.064 C 401.998,263.654 371.935,235.115 371.935,207.737 C 395.168,204.319 401.998,176.133 401.998,176.133 C 361.248,186.733 341.57,145.449 341.57,145.449 C 362.378,147.356 369.998,124.762 369.998,124.762 C 325.748,120.957 322.248,78.555 301.498,53.006 C 280.748,78.555 277.248,120.957 232.998,124.762 C 232.998,124.762 240.618,147.356 261.425,145.449 C 261.425,145.449 241.748,186.733 200.998,176.133 C 200.998,176.133 207.828,204.319 231.061,207.737 C 231.061,235.114 200.998,263.654 171.498,250.064 C 171.498,250.064 179.248,291.378 212.998,282.137 C 211.032,289.329 212.229,294.956 215.139,299.22 C 215.139,299.22 187.998,335.411 123.498,322.365 C 123.498,322.365 132.498,380.803 173.498,365.582 C 173.498,365.582 174.973,380.903 187.738,386.737 C 182.498,402.547 149.748,435.436 89.248005,417.496 C 89.248005,417.496 92.998005,469.139 135.748,457.995 C 135.748,457.995 151.498,494.417 185.248,462.888 C 185.248,462.888 195.077,472.464 208.996,468.402 C 198.704,484.481 182.363,505.828 133.248,507.192 C 146.415,531.02 173.081,549.866 191.415,526.309 C 191.415,526.309 205.116,544.171 222.082,537.543 C 232.749,533.376 237.582,518.517 237.582,518.517 C 237.582,518.517 264.249,534.283 284.249,496.592 C 284.249,496.592 288.249,517.248 301.499,528.12 C 314.749,517.248 318.749,496.592 318.749,496.592 C 338.749,534.282 365.415,518.517 365.415,518.517 C 365.415,518.517 370.249,533.376 380.915,537.543 C 397.881,544.171 411.582,526.309 411.582,526.309 C 429.916,549.866 456.582,531.02 469.749,507.192 C 420.635,505.828 404.293,484.481 394.001,468.402 C 407.92,472.465 417.749,462.888 417.749,462.888 C 451.499,494.417 467.249,457.995 467.249,457.995 C 509.999,469.139 513.749,417.496 513.749,417.496 C 453.248,435.436 420.498,402.547 415.258,386.737 z"
       id="path2587" />
    <path
       id="path2591"
       d="M 261.425,145.452 C 268.569,144.798 277.268,141.256 287.748,132.919"
       stroke-miterlimit="10"
       style="fill:none;stroke:#000000;stroke-width:3;stroke-linecap:round;stroke-miterlimit:10" />
    <path
       id="path2593"
       d="M 231.062,207.739 C 238.944,208.899 248.715,207.208 260.749,200.597 C 260.749,200.597 274.999,216.09 280.749,206.577"
       stroke-miterlimit="10"
       style="fill:none;stroke:#000000;stroke-width:3;stroke-linecap:round;stroke-miterlimit:10" />
    <path
       id="path2595"
       d="M 215.139,299.221 C 220.368,306.881 231.128,310.134 238.998,310.134 C 251.498,310.134 260.998,299.806 260.998,299.806 C 260.998,299.806 273.123,321.142 278.998,314.755"
       stroke-miterlimit="10"
       style="fill:none;stroke:#000000;stroke-width:3;stroke-linecap:round;stroke-miterlimit:10" />
    <path
       id="path2597"
       d="M 187.738,386.737 C 190.741,388.11 194.368,388.957 198.748,388.957 C 216.748,388.957 223.998,377.269 223.998,377.269 C 223.998,377.269 247.998,387.598 260.748,355.525"
       stroke-miterlimit="10"
       style="fill:none;stroke:#000000;stroke-width:3;stroke-linecap:round;stroke-miterlimit:10" />
    <path
       id="path2599"
       d="M 259.498,440.329 C 259.498,440.329 255.498,456.637 245.498,460.17 C 235.498,463.704 224.248,460.442 219.998,453.375 C 216.177,456.528 213.058,462.055 208.996,468.402"
       stroke-miterlimit="10"
       style="fill:none;stroke:#000000;stroke-width:3;stroke-linecap:round;stroke-miterlimit:10" />
    <path
       id="path2601"
       d="M 341.57,145.452 C 334.426,144.798 325.727,141.256 315.248,132.919"
       stroke-miterlimit="10"
       style="fill:none;stroke:#000000;stroke-width:3;stroke-linecap:round;stroke-miterlimit:10" />
    <path
       id="path2603"
       d="M 371.935,207.739 C 364.052,208.899 354.282,207.208 342.248,200.597 C 342.248,200.597 327.998,216.09 322.248,206.577"
       stroke-miterlimit="10"
       style="fill:none;stroke:#000000;stroke-width:3;stroke-linecap:round;stroke-miterlimit:10" />
    <path
       id="path2605"
       d="M 387.857,299.221 C 382.628,306.881 371.869,310.134 363.999,310.134 C 351.499,310.134 341.999,299.806 341.999,299.806 C 341.999,299.806 329.874,321.142 323.999,314.755"
       stroke-miterlimit="10"
       style="fill:none;stroke:#000000;stroke-width:3;stroke-linecap:round;stroke-miterlimit:10" />
    <path
       id="path2607"
       d="M 415.258,386.737 C 412.255,388.11 408.628,388.957 404.248,388.957 C 386.248,388.957 378.998,377.269 378.998,377.269 C 378.998,377.269 354.998,387.598 342.248,355.525"
       stroke-miterlimit="10"
       style="fill:none;stroke:#000000;stroke-width:3;stroke-linecap:round;stroke-miterlimit:10" />
    <path
       id="path2609"
       d="M 343.498,440.329 C 343.498,440.329 347.498,456.637 357.498,460.17 C 367.498,463.704 378.748,460.442 382.998,453.375 C 386.818,456.528 389.938,462.055 394,468.402"
       stroke-miterlimit="10"
       style="fill:none;stroke:#000000;stroke-width:3;stroke-linecap:round;stroke-miterlimit:10" />
    <path
       id="path2611"
       d="M 283.748,364.223 C 282.248,385.424 274.998,410.43 255.498,426.195 C 255.498,426.195 270.748,441.687 288.498,428.097 C 288.498,428.097 293.248,445.493 307.998,452.016 C 307.998,452.016 322.998,442.775 327.248,424.292 C 327.248,424.292 339.998,446.308 361.998,428.641 C 361.998,428.641 337.248,407.44 329.748,366.941"
       stroke-miterlimit="10"
       style="fill:none;stroke:#000000;stroke-width:3;stroke-linecap:round;stroke-miterlimit:10" />
  </g>
  <g
     inkscape:groupmode="layer"
     id="layer3"
     inkscape:label="Reflet final"
     style="display:inline"
     sodipodi:insensitive="true">
    <path
       style="fill:url(#radialGradient3236);fill-opacity:1"
       d="M 1.5,1.5 L 1.5,460.3679 C 1.5,626.67854 135.81454,761.5 301.49993,761.5 C 467.1854,761.5 601.5,626.67854 601.5,460.3679 L 601.5,1.5 L 1.5,1.5 z "
       id="path2346" />
  </g>
  <g
     inkscape:groupmode="layer"
     id="layer4"
     inkscape:label="Contour final"
     style="display:inline"
     sodipodi:insensitive="true">
    <path
       style="fill:none;fill-opacity:1;stroke:#000000;stroke-width:3;stroke-miterlimit:4;stroke-dasharray:none;stroke-opacity:1"
       d="M 1.5,1.5 L 1.5,460.36794 C 1.5,626.67854 135.81454,761.5 301.49993,761.5 C 467.1854,761.5 601.5,626.67854 601.5,460.36794 L 601.5,1.5 L 1.5,1.5 z "
       id="path3239" />
  </g>
</svg>
